dist/img/stack/stack-5.svg

<svg width="110" height="110" viewBox="0 0 110 110" fill="none" xmlns="http://www.w3.org/2000/svg">
<path d="M40.9958 75.0073C40.9958 75.0073 38.2283 76.6167 42.9654 77.1613C48.7042 77.816 51.6372 77.7221 57.9614 76.5252C57.9614 76.5252 59.6241 77.5677 61.9462 78.4707C47.769 84.5468 29.8604 78.1188 40.9958 75.0073Z" fill="#B7B7BE"/>
<path d="M39.2639 67.0781C39.2639 67.0781 36.1598 69.3758 40.9004 69.8661C47.0308 70.4986 51.8721 70.5503 60.2494 68.9372C60.2494 68.9372 61.4081 70.1119 63.23 70.7543C46.089 75.7666 26.9969 71.1496 39.2639 67.0781Z" fill="#B7B7BE"/>
<path d="M53.868 53.6284C57.3613 57.6502 52.9502 61.2694 52.9502 61.2694C52.9502 61.2694 61.8202 56.6904 57.7466 50.9565C53.942 45.6093 51.0244 42.9524 66.8192 33.792C66.8192 33.792 42.0265 39.9841 53.868 53.6284Z" fill="#B7B7BE"/>
<path d="M72.6185 80.8718C72.6185 80.8718 74.6665 82.5593 70.363 83.8648C62.1797 86.3438 36.3033 87.0924 29.115 83.9635C26.531 82.8394 31.3767 81.2794 32.901 80.952C34.4907 80.6073 35.3992 80.6715 35.3992 80.6715C32.5255 78.6471 16.8248 84.6465 27.424 86.3647C56.3297 91.0523 80.1163 84.2538 72.6185 80.8718Z" fill="#B7B7BE"/>
<path d="M42.327 58.8629C42.327 58.8629 29.1646 61.9891 37.6659 63.1244C41.2554 63.605 48.4109 63.4963 55.0762 62.9378C60.5233 62.4783 65.993 61.5013 65.993 61.5013C65.993 61.5013 64.0722 62.3239 62.6826 63.2728C49.3165 66.7881 23.4955 65.1527 30.929 61.557C37.2156 58.5181 42.327 58.8629 42.327 58.8629Z" fill="#B7B7BE"/>
<path d="M65.9385 72.0609C79.5258 65.0004 73.2436 58.2153 68.8586 59.1294C67.7839 59.3531 67.3047 59.5469 67.3047 59.5469C67.3047 59.5469 67.7037 58.9219 68.4657 58.6514C77.1405 55.6016 83.812 67.6463 65.6654 72.4167C65.6654 72.4167 65.8756 72.2289 65.9385 72.0609Z" fill="#B7B7BE"/>
<path d="M57.7468 19C57.7468 19 65.2716 26.5274 50.6097 38.1024C38.8524 47.3876 47.9287 52.6818 50.6049 58.7305C43.7419 52.5385 38.7054 47.0876 42.0843 42.0144C47.0437 34.5674 60.7829 30.9568 57.7468 19Z" fill="#B7B7BE"/>
<path d="M43.662 91.1935C56.7042 92.0283 76.7319 90.7303 77.2062 84.5591C77.2062 84.5591 76.2944 86.8985 66.4276 88.7564C55.2958 90.8513 41.5664 90.6067 33.4233 89.2641C33.4233 89.2641 35.0903 90.6438 43.662 91.1935Z" fill="#B7B7BE"/>
</svg>

<svg width="110" height="110" viewBox="0 0 110 110" fill="none" xmlns="http://www.w3.org/2000/svg"><path d="M40.996 75.007s-2.768 1.61 1.97 2.154c5.738.655 8.671.561 14.995-.636 0 0 1.663 1.043 3.985 1.946-14.177 6.076-32.086-.352-20.95-3.464zm-1.732-7.929s-3.104 2.298 1.636 2.788c6.13.633 10.972.684 19.35-.929 0 0 1.158 1.175 2.98 1.817-17.141 5.013-36.233.396-23.966-3.676zm14.604-13.45c3.493 4.022-.918 7.641-.918 7.641s8.87-4.579 4.797-10.313c-3.805-5.347-6.723-8.004 9.072-17.164 0 0-24.793 6.192-12.951 19.836z" fill="#B7B7BE"/><path d="M72.618 80.872s2.049 1.687-2.255 2.993c-8.183 2.479-34.06 3.227-41.248.099-2.584-1.125 2.262-2.685 3.786-3.012 1.59-.345 2.498-.28 2.498-.28-2.873-2.025-18.574 3.975-7.975 5.693 28.906 4.687 52.692-2.111 45.194-5.493zM42.327 58.863s-13.162 3.126-4.661 4.261c3.59.481 10.745.372 17.41-.186 5.447-.46 10.917-1.437 10.917-1.437s-1.92.823-3.31 1.772c-13.367 3.515-39.188 1.88-31.754-1.716 6.287-3.039 11.398-2.694 11.398-2.694zM65.939 72.06c13.587-7.06 7.305-13.845 2.92-12.93-1.075.223-1.554.417-1.554.417s.399-.625 1.16-.896c8.675-3.05 15.347 8.995-2.8 13.766 0 0 .21-.188.273-.356zM57.747 19s7.525 7.527-7.137 19.102c-11.758 9.286-2.681 14.58-.005 20.629-6.863-6.193-11.9-11.643-8.52-16.717C47.043 34.567 60.782 30.957 57.746 19z" fill="#B7B7BE"/><path d="M43.662 91.194c13.042.834 33.07-.464 33.544-6.635 0 0-.912 2.34-10.778 4.197-11.132 2.095-24.862 1.85-33.005.508 0 0 1.667 1.38 10.239 1.93z" fill="#B7B7BE"/></svg>
